!!!OTL: ES RITTEN DREI REITER WOL UEBER DEN RHEIN
!!!ARE: Europa, Mitteleuropa, Deutschland, Schlesien
!!!SCT: E0057
!!!YEM: Copyright 1995, estate of Helmut Schaffrath.
**kern
*ICvox
*Ivox
*M2/4
*k[f#]
*G:
{8d
=1
4g
8f#
8g
=2
4a
8g
8a
=3
4b
8cc
8b
=4
4a
8r}
{8dd
=5
4cc
8a
8cc
=6
4b
8g
8b
=7
4a
8f#
8d
=8
8g
8b
8dd}
{8dd
=9
4cc
8a
8cc
=10
4b
8g
8b
=11
4a
8f#
8d
=12
4g
8r}
==
!!!AGN: erzaehlendes Volks - Lied, Sage, Mord, Ballade ?
!!!ONB: ESAC (Essen Associative Code) Database: ERK1
!!!AMT: simple duple
!!!AIN: vox
!!!EED: Helmut Schaffrath
!!!EEV: 1.0
*-
